usr/share/icons/biglinux-icons-material/32/actions/system-switch-user.svg

<svg xmlns="http://www.w3.org/2000/svg" viewBox="0 0 32 32">
  <defs
     id="defs3051">
    <style
       type="text/css"
       id="current-color-scheme">
      .ColorScheme-Text {
        color:#dedede;
      }
      </style>
  </defs>
  <path
     style="fill:currentColor;fill-opacity:1;stroke:none" 
     id="path1011"
     d="m 18,8 c -1.285847,0 -2.416677,0.617761 -3.148438,1.560547 0.329275,0.112144 0.645954,0.250811 0.945313,0.417969 C 16.345252,9.381114 17.12515,9 18,9 c 1.656852,0 3,1.343147 3,3 0,1.398728 -0.960744,2.564273 -2.255859,2.896484 6.21e-4,0.03481 0.0059,0.06856 0.0059,0.103516 0,0.318095 -0.03235,0.627594 -0.08203,0.931641 C 20.557605,15.612437 22,13.980455 22,12 22,9.790862 20.209142,8 18,8 Z M 13,20 C 9.1189423,20 6,22.689616 6,26.435547 6.0033,26.962961 6.06906,27.487484 6.198034,28 H 7.3097713 18.972229 19.856521 C 19.985519,27.487484 19.997113,26.963414 20,26.436 20,22.690069 16.881058,20 13,20 Z m 0.027,0.992 c 3.813868,0 5.973,2.274365 5.973,5.444 -0.0011,0.174256 -0.01135,0.347611 -0.029,0.521 H 7.0290003 c -0.01765,-0.173389 -0.02741,-0.347197 -0.029,-0.521453 0,-3.169635 2.179706,-5.443547 5.9727347,-5.443547 z m 6.224205,-3.992043 c -0.25686,0 -0.509035,0.01606 -0.758429,0.04297 -0.12585,0.383697 -0.291433,0.751062 -0.492776,1.097662 0.410411,-0.09117 0.830028,-0.138336 1.251205,-0.140627 3.153826,1e-6 5.710515,2.46245 5.710515,5.500033 -9e-4,0.166968 -0.009,0.333807 -0.0264,0.500003 h -4.53029 c 0.108739,0.321192 0.202605,0.648801 0.269709,0.986334 l 5.134641,0.01367 C 25.93326,24.508838 25.99723,24.005434 26,23.499992 26,19.910121 22.97845,16.999953 19.251205,16.999954 Z M 13,11 c -2.209143,0 -3.9999997,1.790862 -3.9999997,4 0,2.20914 1.7908567,4.000001 3.9999997,4 2.209142,1e-6 4,-1.79086 4,-4 0,-2.209138 -1.790858,-4 -4,-4 z m 0,1 c 1.656852,0 3,1.343147 3,3 0,1.656854 -1.343148,3.000001 -3,3 -1.656852,1e-6 -3,-1.343146 -3,-3 0,-1.656853 1.343148,-3 3,-3 z m 3.027,-8.200001 c -2.034737,0 -3.684211,1.645485 -3.684211,3.675293 V 8.090575 L 10.736,6.388 10.123,7.130953 12.356,9.358 13,10 13.582,9.257328 15.646,7.03 15.002,6.388291 13.295,8.091 V 7.475 c 0,-1.449863 1.278621,-2.624917 2.732,-2.624917 1.453379,0 1.973,0.519045 1.973,1.968908 h 1 C 19,4.718823 17.883088,3.839078 16.027,3.799999 Z"
     class="ColorScheme-Text"
     />
</svg>

<svg xmlns="http://www.w3.org/2000/svg" viewBox="0 0 32 32"><path d="M18 8a3.977 3.977 0 0 0-3.148 1.56c.329.113.646.251.945.419A2.981 2.981 0 0 1 18 9a2.993 2.993 0 0 1 .744 5.896c0 .035.006.069.006.104 0 .318-.032.628-.082.932A3.99 3.99 0 0 0 22 12a4 4 0 0 0-4-4Zm-5 12c-3.881 0-7 2.69-7 6.436.003.527.07 1.051.198 1.564h13.659c.129-.513.14-1.037.143-1.564C20 22.69 16.881 20 13 20Zm.027.992c3.814 0 5.973 2.274 5.973 5.444a5.48 5.48 0 0 1-.029.521H7.029A5.656 5.656 0 0 1 7 26.436c0-3.17 2.18-5.444 5.973-5.444zM19.251 17c-.257 0-.509.016-.758.043A5.756 5.756 0 0 1 18 18.14 5.92 5.92 0 0 1 19.251 18c3.154 0 5.71 2.462 5.71 5.5 0 .167-.008.334-.026.5h-4.53c.109.321.203.649.27.986l5.134.014c.124-.491.188-.995.191-1.5 0-3.59-3.022-6.5-6.749-6.5ZM13 11a4 4 0 1 0 0 8 4 4 0 0 0 0-8zm0 1a3 3 0 1 1 0 6 3 3 0 0 1 0-6zm3.027-8.2a3.68 3.68 0 0 0-3.684 3.675v.616l-1.607-1.703-.613.743 2.233 2.227L13 10l.582-.743 2.064-2.227-.644-.642-1.707 1.703v-.616c0-1.45 1.279-2.625 2.732-2.625C17.48 4.85 18 5.37 18 6.82h1c0-2.1-1.117-2.98-2.973-3.019Z" style="fill:currentColor;fill-opacity:1;stroke:none;color:#dedede"/></svg>
